public/icons/badge-termine.svg

<?xml version="1.0" encoding="UTF-8"?>
<svg width="80px" height="46px" viewBox="0 0 80 46" version="1.1" xmlns="http://www.w3.org/2000/svg" xmlns:xlink="http://www.w3.org/1999/xlink">
    <!-- Generator: sketchtool 49.2 (51160) - http://www.bohemiancoding.com/sketch -->
    <title>2609FF94-EC74-4086-B422-CB019524E30B</title>
    <desc>Created with sketchtool.</desc>
    <defs></defs>
    <g id="Écrans" stroke="none" stroke-width="1" fill="none" fill-rule="evenodd">
        <g id="PassCulture-v0rc3-HP3-c4" transform="translate(-148.000000, -505.000000)">
            <g id="badge-termine" transform="translate(148.000000, 505.000000)">
                <polygon id="Rectangle-8-Copy" fill="#FFFFFF" points="0 27.0294122 80 0 80 18.9205885 0 45.9500008"></polygon>
                <path d="M22.9755122,24.8329862 C23.0962975,24.7924515 23.1566892,24.841379 23.1566892,24.9797703 L23.1566892,25.8749844 C23.1566892,26.0133757 23.0962975,26.1028374 22.9755122,26.1433721 L20.9485942,26.823592 C20.9032997,26.8387926 20.8806528,26.8723407 20.8806528,26.9242374 L20.8806528,34.4103034 C20.8806528,34.5486947 20.820261,34.6381564 20.6994757,34.6786911 L19.7482963,34.9979004 C19.627511,35.0384352 19.5671193,34.9895076 19.5671193,34.8511163 L19.5671193,27.3650503 C19.5671193,27.3131536 19.5444724,27.2948058 19.4991779,27.3100063 L17.5515248,27.9636255 C17.4307395,28.0041602 17.3703478,27.9552326 17.3703478,27.8168414 L17.3703478,26.9216272 C17.3703478,26.783236 17.4307395,26.6937743 17.5515248,26.6532396 L22.9755122,24.8329862 Z M29.7356801,23.6541456 C29.7356801,23.7925368 29.6752884,23.8819985 29.5545031,23.9225332 L25.7497855,25.1993707 C25.704491,25.2145712 25.6818441,25.2481193 25.6818441,25.300016 L25.6818441,27.7002278 C25.6818441,27.7521246 25.704491,27.7704724 25.7497855,27.7552719 L28.2862639,26.9040469 C28.4070492,26.8635122 28.4674409,26.9124397 28.4674409,27.050831 L28.4674409,27.933071 C28.4674409,28.0714623 28.4070492,28.160924 28.2862639,28.2014587 L25.7497855,29.0526837 C25.704491,29.0678842 25.6818441,29.1014323 25.6818441,29.153329 L25.6818441,31.6313856 C25.6818441,31.6832823 25.704491,31.7016301 25.7497855,31.6864296 L29.5545031,30.4095922 C29.6752884,30.3690574 29.7356801,30.417985 29.7356801,30.5563763 L29.7356801,31.4386163 C29.7356801,31.5770076 29.6752884,31.6664692 29.5545031,31.7070039 L24.5494876,33.3866532 C24.4287023,33.4271879 24.3683106,33.3782604 24.3683106,33.2398691 L24.3683106,24.5731584 C24.3683106,24.4347671 24.4287023,24.3453054 24.5494876,24.3047707 L29.5545031,22.6251214 C29.6752884,22.5845867 29.7356801,22.6335143 29.7356801,22.7719055 L29.7356801,23.6541456 Z M35.5559922,29.6929449 C35.4503051,29.7284128 35.3785899,29.7005839 35.3408445,29.6094576 L33.8574576,26.3966745 C33.8499085,26.3646101 33.8234871,26.3561783 33.7781926,26.3713788 L32.4533356,26.8159918 C32.4080411,26.8311923 32.3853942,26.8647405 32.3853942,26.9166372 L32.3853942,30.5493902 C32.3853942,30.6877815 32.3250025,30.7772431 32.2042172,30.8177779 L31.2530378,31.1369872 C31.1322525,31.1775219 31.0718607,31.1285944 31.0718607,30.9902031 L31.0718607,22.3105183 C31.0718607,22.172127 31.1322525,22.0826653 31.2530378,22.0421306 L34.3217237,21.0123004 C34.7822176,20.8577618 35.1898619,20.831238 35.5446687,20.9327284 C35.8994755,21.0342187 36.1750128,21.253126 36.3712889,21.5894567 C36.567565,21.9257875 36.6657015,22.3534301 36.6657015,22.8723974 C36.6657015,23.4692098 36.5317074,24.0223252 36.263715,24.5317602 C35.9957226,25.0411952 35.6277105,25.4522876 35.1596675,25.7650499 C35.1370202,25.7812996 35.1219223,25.8015027 35.1143732,25.8256597 C35.1068241,25.8498168 35.1105986,25.8680111 35.1256968,25.8802432 L36.6883487,29.0664255 L36.7109958,29.1626182 C36.7109958,29.2577622 36.658153,29.3230672 36.5524659,29.3585351 L35.5559922,29.6929449 Z M32.4533356,22.9367306 C32.4080411,22.9519311 32.3853942,22.9854792 32.3853942,23.0373759 L32.3853942,25.5932772 C32.3853942,25.6451739 32.4080411,25.6635217 32.4533356,25.6483212 L34.1405467,25.0821046 C34.5029026,24.9605004 34.795425,24.739079 35.0181229,24.4178336 C35.2408208,24.0965882 35.3521681,23.7370335 35.3521681,23.3391585 C35.3521681,22.9326341 35.2408208,22.6391648 35.0181229,22.4587418 C34.795425,22.2783188 34.5029026,22.2489098 34.1405467,22.370514 L32.4533356,22.9367306 Z M38.1943827,28.8075189 C38.0735975,28.8480536 38.0132057,28.7991261 38.0132057,28.6607348 L38.0132057,19.9940241 C38.0132057,19.8556328 38.0735975,19.7661711 38.1943827,19.7256364 L39.1568857,19.4026269 C39.2625728,19.367159 39.3380625,19.3893965 39.383357,19.46934 L41.1498331,22.1460003 C41.1649312,22.1668818 41.1819164,22.1741557 41.2007891,22.1678222 C41.2196618,22.1614886 41.2328725,22.1440812 41.2404216,22.1155994 L43.0295447,18.2457041 C43.0748392,18.1353596 43.1503289,18.0624545 43.256016,18.0269866 L44.2071954,17.7077772 C44.3279807,17.6672425 44.3883725,17.71617 44.3883725,17.8545613 L44.3883725,26.5212721 C44.3883725,26.6596633 44.3279807,26.749125 44.2071954,26.7896597 L43.256016,27.1088691 C43.1352307,27.1494038 43.074839,27.1004763 43.074839,26.962085 L43.074839,20.8253272 C43.074839,20.7907294 43.0654028,20.7722728 43.0465301,20.7699569 C43.0276574,20.767641 43.0106722,20.7863151 42.9955741,20.8259798 L41.6480699,23.808146 C41.6027754,23.9184906 41.5272857,23.9913957 41.4215986,24.0268636 L40.9799796,24.1750679 C40.8742925,24.2105358 40.7988028,24.1882983 40.7535083,24.1083548 L39.4060041,22.0306151 C39.390906,22.0010841 39.3739208,21.9938103 39.3550481,22.0087933 C39.3361754,22.0237763 39.3267392,22.0485663 39.3267392,22.0831641 L39.3267392,28.2199219 C39.3267392,28.3583132 39.2663474,28.4477748 39.1455622,28.4883095 L38.1943827,28.8075189 Z M46.2227899,26.1132399 C46.1020046,26.1537746 46.0416129,26.1048471 46.0416129,25.9664558 L46.0416129,17.2997451 C46.0416129,17.1613538 46.1020046,17.0718921 46.2227899,17.0313574 L47.1739693,16.712148 C47.2947546,16.6716133 47.3551463,16.7205408 47.3551463,16.8589321 L47.3551463,25.5256429 C47.3551463,25.6640341 47.2947546,25.7534958 47.1739693,25.7940305 L46.2227899,26.1132399 Z M49.1895638,25.1176107 C49.0687785,25.1581454 49.0083868,25.1092179 49.0083868,24.9708266 L49.0083868,16.3041159 C49.0083868,16.1657246 49.0687785,16.0762629 49.1895638,16.0357282 L50.0954489,15.7317193 C50.2011361,15.6962514 50.2766257,15.7184889 50.3219202,15.7984323 L53.4925183,20.6765471 C53.5076164,20.7060781 53.5246016,20.713352 53.5434743,20.698369 C53.562347,20.683386 53.5717832,20.6585959 53.5717832,20.6239981 L53.5717832,14.7726709 C53.5717832,14.6342797 53.6321749,14.544818 53.7529602,14.5042833 L54.7041396,14.1850739 C54.8249249,14.1445392 54.8853167,14.1934667 54.8853167,14.331858 L54.8853167,22.9985687 C54.8853167,23.13696 54.8249249,23.2264217 54.7041396,23.2669564 L53.7756074,23.5785656 C53.6699202,23.6140334 53.5944306,23.591796 53.5491361,23.5118525 L50.378538,18.5948154 C50.3634399,18.5652844 50.3464547,18.5580105 50.327582,18.5729935 C50.3087093,18.5879765 50.2992731,18.6127666 50.2992731,18.6473644 L50.3105967,24.5338138 C50.3105967,24.6722051 50.2502049,24.7616667 50.1294196,24.8022014 L49.1895638,25.1176107 Z M61.792691,12.8960301 C61.792691,13.0344213 61.7322992,13.123883 61.6115139,13.1644177 L57.8067963,14.4412552 C57.7615018,14.4564557 57.7388549,14.4900038 57.7388549,14.5419005 L57.7388549,16.9421123 C57.7388549,16.9940091 57.7615018,17.0123569 57.8067963,16.9971564 L60.3432747,16.1459314 C60.46406,16.1053967 60.5244518,16.1543242 60.5244518,16.2927155 L60.5244518,17.1749555 C60.5244518,17.3133468 60.46406,17.4028085 60.3432747,17.4433432 L57.8067963,18.2945682 C57.7615018,18.3097687 57.7388549,18.3433168 57.7388549,18.3952135 L57.7388549,20.8732701 C57.7388549,20.9251668 57.7615018,20.9435146 57.8067963,20.9283141 L61.6115139,19.6514767 C61.7322992,19.6109419 61.792691,19.6598695 61.792691,19.7982608 L61.792691,20.6805008 C61.792691,20.8188921 61.7322992,20.9083537 61.6115139,20.9488884 L56.6064985,22.6285377 C56.4857132,22.6690724 56.4253214,22.6201449 56.4253214,22.4817536 L56.4253214,13.8150429 C56.4253214,13.6766516 56.4857132,13.5871899 56.6064985,13.5466552 L61.6115139,11.8670059 C61.7322992,11.8264712 61.792691,11.8753988 61.792691,12.01379 L61.792691,12.8960301 Z M58.6107694,11.8880025 C58.5050822,11.9234704 58.4522395,11.8936328 58.4522395,11.7984888 C58.4522395,11.7552415 58.4597884,11.7181108 58.4748866,11.6870956 L59.0637119,10.2569486 C59.1090064,10.1466041 59.1807216,10.0749657 59.2788597,10.0420312 L60.1734213,9.7418224 C60.2715593,9.70888793 60.3206276,9.73134291 60.3206276,9.80918801 C60.3206276,9.84378583 60.3093041,9.89083253 60.2866569,9.95032952 L59.5619488,11.439052 C59.5166543,11.540747 59.4449391,11.6080608 59.3468011,11.6409953 L58.6107694,11.8880025 Z" id="Terminé-Copy" fill="#000000"></path>
                <path d="M9.57075078,34.5366181 C9.19449948,34.6659545 8.87988027,34.7189654 8.62688371,34.6956524 C8.37388714,34.6723394 8.07224192,34.6106116 7.72193898,34.5104671 C7.46245533,34.4439744 7.22243655,34.403228 7.00187544,34.3882266 C6.78131434,34.3732252 6.54129556,34.4103227 6.2818119,34.4995202 C5.6849995,34.7046745 5.19198795,35.12714 4.80276247,35.7669293 C4.72491737,35.8715337 4.65356043,35.9349846 4.58868952,35.957284 C4.53679279,35.9751235 4.49138383,35.9712718 4.45246128,35.9457289 L4.06323775,35.7876068 C3.98539265,35.7494952 3.94647069,35.6980047 3.94647069,35.6331338 C3.94647069,35.581237 3.96593167,35.5226514 4.00485422,35.457375 C4.26433787,34.9400295 4.60490506,34.4823923 5.026566,34.0844498 C5.44822694,33.6865073 5.90556002,33.4028027 6.39857896,33.2333274 C6.70995935,33.1262904 6.9824131,33.0747999 7.21594839,33.0788543 C7.44948368,33.0829087 7.69598945,33.1246688 7.95547311,33.2041356 C8.02034402,33.2207588 8.1565709,33.2582617 8.36415782,33.3166456 C8.57174474,33.3750294 8.77932855,33.4042209 8.98691548,33.4042209 C9.1945024,33.4042209 9.4150602,33.3640826 9.64859549,33.2838048 C9.90807914,33.1946073 10.1351239,33.0549342 10.3297367,32.8647814 C10.5243494,32.6746285 10.7319332,32.4183922 10.9524943,32.0960649 C11.0303394,31.9914605 11.1016964,31.9280096 11.1665673,31.9057102 C11.218464,31.8878707 11.263873,31.8917224 11.3027955,31.9172653 L11.7698638,32.0875506 C11.8347347,32.117148 11.8671696,32.1708684 11.8671696,32.2487135 C11.8671696,32.3135844 11.8541957,32.3699402 11.8282473,32.4177825 C11.5428153,32.9310736 11.2054916,33.3746218 10.8162661,33.7484404 C10.4270406,34.1222591 10.011873,34.3849823 9.57075078,34.5366181 Z" id="~" fill="#000000"></path>
                <path d="M73.5760459,10.2353941 C73.1997946,10.3547669 72.8851754,10.5092945 72.6321788,10.6989814 C72.3791823,10.8886683 72.077537,11.148497 71.7272341,11.4784752 C71.4677504,11.7152751 71.2277317,11.9137156 71.0071706,12.0738025 C70.7866095,12.2338895 70.5465907,12.3550942 70.287107,12.4374202 C69.6902946,12.6267702 69.1972831,12.5321712 68.8080576,12.1536203 C68.7302125,12.1010812 68.6588555,12.0851026 68.5939846,12.1056842 C68.5420879,12.1221494 68.4966789,12.1558652 68.4577564,12.2068325 L68.0685329,12.6199581 C67.9906878,12.70902 67.9517658,12.7857319 67.9517658,12.850096 C67.9517658,12.9015873 67.9712268,12.9469035 68.0101493,12.9860458 C68.269633,13.3285229 68.6102002,13.558378 69.0318611,13.6756181 C69.4535221,13.7928583 69.9108551,13.7732688 70.4038741,13.6168493 C70.7152545,13.518058 70.9877082,13.3897808 71.2212435,13.232014 C71.4547788,13.0742472 71.7012846,12.8705304 71.9607682,12.6208577 C72.0256391,12.5616577 72.161866,12.434765 72.3694529,12.240176 C72.5770399,12.0455869 72.7846237,11.8799641 72.9922106,11.7433027 C73.1997975,11.6066413 73.4203553,11.5012655 73.6538906,11.427172 C73.9133743,11.3448459 74.140419,11.3339566 74.3350318,11.3945039 C74.5296445,11.4550511 74.7372283,11.5726262 74.9577894,11.7472326 C75.0356345,11.7997718 75.1069915,11.8157503 75.1718624,11.7951688 C75.2237591,11.7787036 75.2691681,11.7449878 75.3080906,11.6940204 L75.7751589,11.2175789 C75.8400298,11.145506 75.8724648,11.0708523 75.8724648,10.9936154 C75.8724648,10.9292513 75.8594908,10.881877 75.8335424,10.8514911 C75.5481104,10.5301195 75.2107867,10.312108 74.8215612,10.1974499 C74.4323357,10.0827918 74.0171681,10.0954398 73.5760459,10.2353941 Z" id="~-copy" fill="#000000"></path>
            </g>
        </g>
    </g>
</svg>

<svg width="80" height="46" viewBox="0 0 80 46" xmlns="http://www.w3.org/2000/svg"><g fill="none"><path fill="#FFF" d="M0 27.03L80 0v18.92L0 45.95z"/><path d="M22.976 24.833c.12-.04.18.008.18.147v.895c0 .138-.06.228-.18.268l-2.027.68c-.046.016-.068.05-.068.101v7.486c0 .139-.06.228-.182.269l-.95.319c-.121.04-.182-.008-.182-.147v-7.486c0-.052-.023-.07-.068-.055l-1.947.654c-.121.04-.182-.009-.182-.147v-.895c0-.139.06-.228.182-.269l5.424-1.82zm6.76-1.179c0 .139-.06.228-.181.269l-3.805 1.276c-.046.016-.068.05-.068.101v2.4c0 .052.022.07.068.055l2.536-.851c.121-.04.181.008.181.147v.882c0 .138-.06.228-.18.268l-2.537.852c-.046.015-.068.048-.068.1v2.478c0 .052.022.07.068.055l3.805-1.276c.12-.04.18.008.18.146v.883c0 .138-.06.227-.18.268l-5.006 1.68c-.12.04-.18-.009-.18-.147v-8.667c0-.138.06-.228.18-.268l5.006-1.68c.12-.04.18.009.18.147v.882zm5.82 6.039c-.106.035-.177.008-.215-.084l-1.484-3.212c-.007-.032-.034-.04-.079-.026l-1.325.445c-.045.015-.068.049-.068.1v3.633c0 .139-.06.228-.18.269l-.952.319c-.12.04-.181-.008-.181-.147v-8.68c0-.138.06-.227.181-.268l3.069-1.03c.46-.154.868-.18 1.223-.08.354.102.63.321.826.657.197.337.295.764.295 1.283a3.51 3.51 0 01-.402 1.66c-.268.51-.636.92-1.104 1.233a.116.116 0 00-.046.06c-.007.025-.003.043.012.055l1.562 3.186.023.097c0 .095-.053.16-.159.196l-.996.334zm-3.103-6.756c-.045.015-.068.048-.068.1v2.556c0 .052.023.07.068.055l1.688-.566c.362-.121.654-.343.877-.664a1.85 1.85 0 00.334-1.079c0-.406-.111-.7-.334-.88-.223-.18-.515-.21-.877-.088l-1.688.566zm5.741 5.87c-.12.041-.18-.008-.18-.146v-8.667c0-.138.06-.228.18-.268l.963-.323c.106-.036.181-.014.226.066l1.767 2.677c.015.02.032.028.05.022.02-.007.033-.024.04-.052l1.79-3.87a.363.363 0 01.226-.219l.951-.32c.121-.04.181.01.181.148v8.666c0 .139-.06.228-.18.269l-.952.319c-.12.04-.181-.009-.181-.147v-6.137c0-.034-.01-.053-.028-.055-.02-.002-.036.016-.051.056l-1.348 2.982a.363.363 0 01-.226.219l-.442.148c-.106.036-.181.013-.226-.067l-1.348-2.077c-.015-.03-.032-.037-.051-.022-.019.015-.028.04-.028.074v6.137c0 .138-.06.228-.181.268l-.952.32zm8.029-2.694c-.121.04-.181-.008-.181-.147V17.3c0-.139.06-.228.18-.269l.952-.319c.12-.04.181.009.181.147v8.667c0 .138-.06.227-.181.268l-.951.32zm2.967-.995c-.121.04-.182-.009-.182-.147v-8.667c0-.138.06-.228.182-.268l.905-.304c.106-.036.182-.014.227.066l3.17 4.879c.016.03.033.036.051.021.02-.015.029-.04.029-.074v-5.851c0-.139.06-.228.181-.269l.951-.319c.12-.04.181.008.181.147v8.667c0 .138-.06.227-.18.268l-.93.312c-.105.035-.18.013-.226-.067l-3.17-4.917c-.016-.03-.033-.037-.051-.022-.02.015-.029.04-.029.074l.012 5.887c0 .138-.06.228-.182.268l-.94.316zm12.603-12.222c0 .138-.06.228-.181.268l-3.805 1.277c-.045.015-.068.049-.068.1v2.401c0 .052.023.07.068.055l2.536-.851c.121-.04.181.008.181.147v.882c0 .138-.06.228-.18.268l-2.537.852c-.045.015-.068.048-.068.1v2.478c0 .052.023.07.068.055l3.805-1.277c.12-.04.18.009.18.147v.883c0 .138-.06.227-.18.268l-5.006 1.68c-.12.04-.18-.009-.18-.147v-8.667c0-.138.06-.228.18-.268l5.006-1.68c.12-.04.18.008.18.147v.882zm-3.182-1.008c-.106.035-.159.006-.159-.09 0-.043.008-.08.023-.11l.589-1.431a.351.351 0 01.215-.215l.894-.3c.099-.033.148-.01.148.067a.427.427 0 01-.034.141l-.725 1.49a.352.352 0 01-.215.201l-.736.247zM9.57 34.537c-.376.129-.69.182-.943.159a5.07 5.07 0 01-.905-.186c-.26-.066-.5-.107-.72-.122-.22-.015-.46.022-.72.112-.597.205-1.09.627-1.48 1.267-.077.105-.148.168-.213.19a.151.151 0 01-.137-.011l-.389-.158c-.078-.039-.117-.09-.117-.155 0-.052.02-.11.059-.176.26-.517.6-.975 1.022-1.373a3.79 3.79 0 011.372-.85c.311-.108.583-.16.817-.155.233.004.48.046.74.125.064.017.2.054.408.113a2.038 2.038 0 001.284-.033 1.8 1.8 0 00.682-.42c.194-.19.402-.446.622-.768.078-.105.15-.168.215-.19a.15.15 0 01.136.011l.467.17c.065.03.097.084.097.162a.35.35 0 01-.039.169 5.606 5.606 0 01-1.012 1.33 3.398 3.398 0 01-1.245.789zm64.006-24.302a3.15 3.15 0 00-.944.464c-.253.19-.554.45-.905.78-.26.236-.5.435-.72.595-.22.16-.46.281-.72.363-.597.19-1.09.095-1.479-.283-.078-.053-.15-.069-.214-.048a.277.277 0 00-.136.1l-.39.414c-.077.089-.116.166-.116.23 0 .052.02.097.058.136.26.343.6.572 1.022.69.422.117.879.097 1.372-.06.311-.098.584-.226.817-.384.234-.158.48-.361.74-.611l.408-.38c.208-.195.416-.361.623-.498.208-.136.428-.242.662-.316.26-.082.486-.093.681-.032.195.06.402.178.623.352.078.053.149.069.214.048a.277.277 0 00.136-.101l.467-.476a.333.333 0 00.097-.224c0-.065-.013-.112-.038-.143a2.147 2.147 0 00-1.012-.654c-.39-.114-.805-.102-1.246.038z" fill="#000"/></g></svg>
